src/assets/icons/svg/search.svg

<svg width="24" height="24" viewBox="0 0 24 24" fill="none" xmlns="http://www.w3.org/2000/svg">
<path d="M14.1563 0C8.72841 0 4.31251 4.41591 4.31251 9.84375C4.31251 12.2318 5.16722 14.4239 6.58683 16.1302L0.276849 22.3973C-0.0905101 22.7622 -0.0925258 23.3558 0.272302 23.7232C0.455584 23.9077 0.696521 24 0.937506 24C1.17633 24 1.41526 23.9093 1.59811 23.7277L7.91672 17.452C9.61632 18.8483 11.7901 19.6875 14.1563 19.6875C15.845 19.6875 17.5114 19.2524 18.9752 18.4291C19.4265 18.1753 19.5866 17.6037 19.3328 17.1524C19.079 16.7011 18.5074 16.541 18.0561 16.7948C16.8723 17.4606 15.5237 17.8125 14.1563 17.8125C9.76229 17.8125 6.18751 14.2377 6.18751 9.84375C6.18751 5.44978 9.76229 1.875 14.1563 1.875C18.5502 1.875 22.125 5.44978 22.125 9.84375C22.125 11.228 21.7649 12.591 21.0836 13.7855C20.827 14.2353 20.9837 14.8078 21.4334 15.0644C21.8832 15.3209 22.4557 15.1643 22.7123 14.7145C23.5547 13.2375 24 11.5532 24 9.84375C24 4.41591 19.5841 0 14.1563 0Z" fill="black"/>
</svg>

<?xml version="1.0" encoding="iso-8859-1"?>
<!-- Generator: Adobe Illustrator 23.1.0, SVG Export Plug-In . SVG Version: 6.00 Build 0)  -->
<svg version="1.1" id="&#x421;&#x43B;&#x43E;&#x439;_1"
	 xmlns="http://www.w3.org/2000/svg" xmlns:xlink="http://www.w3.org/1999/xlink" x="0px" y="0px" viewBox="0 0 24 24"
	 style="enable-background:new 0 0 24 24;" xml:space="preserve">
<path d="M14.156,0C8.728,0,4.313,4.416,4.313,9.844c0,2.388,0.855,4.58,2.274,6.286l-6.31,6.267
	c-0.367,0.365-0.369,0.958-0.005,1.326C0.456,23.908,0.697,24,0.938,24c0.239,0,0.478-0.091,0.661-0.272l6.319-6.276
	c1.7,1.396,3.873,2.236,6.24,2.236c1.689,0,3.355-0.435,4.819-1.258c0.451-0.254,0.611-0.825,0.358-1.277
	c-0.254-0.451-0.825-0.611-1.277-0.358c-1.184,0.666-2.532,1.018-3.9,1.018c-4.394,0-7.969-3.575-7.969-7.969
	c0-4.394,3.575-7.969,7.969-7.969c4.394,0,7.969,3.575,7.969,7.969c0,1.384-0.36,2.747-1.041,3.942
	c-0.257,0.45-0.1,1.022,0.35,1.279c0.45,0.257,1.022,0.1,1.279-0.35C23.555,13.238,24,11.553,24,9.844C24,4.416,19.584,0,14.156,0z"
	/>
</svg>
